icon-themes/colibre_svg/cmd/ar/sc_alphalowliststyle.svg

<svg viewBox="0 0 16 16" xmlns="http://www.w3.org/2000/svg"><path d="m.5 2c-.277 0-.5.223-.5.5s.223.5.5.5h8c.277 0 .5-.223.5-.5s-.223-.5-.5-.5zm3.5996094 3c-.277 0-.5.223-.5.5s.223.5.5.5h4.4003906c.277 0 .5-.223.5-.5s-.223-.5-.5-.5zm-3.5996094 5c-.277 0-.5.223-.5.5s.223.5.5.5h8c.277 0 .5-.223.5-.5s-.223-.5-.5-.5zm3.5996094 3c-.277 0-.5.223-.5.5s.223.5.5.5h4.4003906c.277 0 .5-.223.5-.5s-.223-.5-.5-.5z" fill="#808080"/><path d="m12.216797 2c-.387821 0-.748698.0628708-1.082031.1894531-.333334.1265823-.638422.3204221-.914063.5800781l.220703.3886719c.035256.0616686.082932.1166701.140625.1621094.060898.042194.133464.0625.216797.0625.096154 0 .182843-.020306.259766-.0625.076923-.0421943.160256-.0880334.25-.1367187.089744-.0519313.191256-.1003842.30664-.1425782.11859-.042194.267779-.0625.447266-.0625.240385 0 .424529.0726936.552734.21875.128206.1460564.19336.3759128.19336.6875v.2578125c-.538462.0129828-.989383.0686447-1.351563.1660157-.358974.0941253-.647285.2133185-.865234.359375-.214743.1428107-.367287.3039084-.457031.4824218-.089744.1785135-.134766.3566427-.134766.5351563 0 .214216.034254.4047817.101562.5703125.067308.162285.161409.2978492.283204.4082031.125.110354.271534.1954836.441406.2539063.169872.0551766.357372.0820312.5625.0820312.166667 0 .31851-.0137574.453125-.0429688.137821-.0259658.266176-.0678702.384765-.1230468.121795-.0551769.237431-.1219826.34961-.203125.11218-.0811426.229768-.1760951.351562-.2832032l.105469.3203126c.035254.1038625.083631.1752348.144531.2109374.060898.0324567.148288.0488282.263672.0488282h.558594v-3.0429688c0-.2758844-.040966-.5293209-.121094-.7597656s-.195762-.4282194-.349609-.59375c-.153846-.1687765-.341346-.2997454-.5625-.390625-.221153-.0941253-.471153-.140625-.75-.140625zm.591797 2.8925781v.7773438c-.157052.1655306-.316306.2899513-.476563.3710937-.157051.0778968-.344551.1171875-.5625.1171875-.185897-.0000002-.334385-.0419044-.443359-.1230469-.105769-.0811424-.158203-.2173673-.158203-.4121093 0-.097371.026845-.1890493.078125-.2734375.054487-.0843885.142578-.157082.267578-.21875.125-.0649144.291667-.117302.5-.15625.211539-.042194.477614-.0690486.794922-.0820313zm-2.808594 3.1074219v6.927734h.925781c.087718 0 .160017-.016688.214844-.048828.054826-.035353.091102-.096816.109375-.183594l.060547-.30664c.087719.093205.176204.176771.267578.253906.095029.073924.199196.138726.3125.19336.113305.051422.235609.092167.367187.121093.135234.028927.28695.042969.455079.042969.343567 0 .655815-.061463.933593-.183594.281433-.125344.521633-.300414.722657-.52539.201023-.228192.357147-.500178.466797-.81836.109648-.318181.164062-.671657.164062-1.060547 0-.359962-.047549-.685353-.142578-.974609-.095029-.289257-.230812-.535802-.40625-.738281-.175439-.205694-.386228-.363382-.634766-.472657-.248538-.109274-.529171-.164062-.839844-.164062-.325292 0-.61745.060772-.876953.179688-.259503.115702-.495043.270053-.707031.46289v-2.705078zm2.494141 3.017578c.171783 0 .323498.027391.455078.082031.135233.054637.246265.140156.333984.25586.091376.115702.161471.266023.208985.449219.047513.179981.072265.39718.072265.654296 0 .289256-.029411.536495-.087891.742188-.054823.202479-.136192.370181-.242187.501953-.102339.128557-.229053.22409-.378906.285156-.149854.057854-.315298.085938-.498047.085938s-.354806-.03073-.515625-.091797c-.160819-.061065-.31033-.167304-.449219-.31836v-2.111328c.157164-.173553.322357-.30454.494141-.394531.171783-.093205.373503-.140625.607422-.140625z" fill="#4d82b8"/></svg>

<svg viewBox="0 0 16 16" xmlns="http://www.w3.org/2000/svg">
  <path
     style="fill:#808080"
     d="M 0.5 2 C 0.223 2 0 2.223 0 2.5 C 0 2.777 0.223 3 0.5 3 L 8.5 3 C 8.777 3 9 2.777 9 2.5 C 9 2.223 8.777 2 8.5 2 L 0.5 2 z M 4.0996094 5 C 3.8226094 5 3.5996094 5.223 3.5996094 5.5 C 3.5996094 5.777 3.8226094 6 4.0996094 6 L 8.5 6 C 8.777 6 9 5.777 9 5.5 C 9 5.223 8.777 5 8.5 5 L 4.0996094 5 z M 0.5 10 C 0.223 10 0 10.223 0 10.5 C 0 10.777 0.223 11 0.5 11 L 8.5 11 C 8.777 11 9 10.777 9 10.5 C 9 10.223 8.777 10 8.5 10 L 0.5 10 z M 4.0996094 13 C 3.8226094 13 3.5996094 13.223 3.5996094 13.5 C 3.5996094 13.777 3.8226094 14 4.0996094 14 L 8.5 14 C 8.777 14 9 13.777 9 13.5 C 9 13.223 8.777 13 8.5 13 L 4.0996094 13 z "
     id="rect2" />
  <path
     style="fill:#4d82b8"
     d="M 12.216797 2 C 11.828976 2 11.468099 2.0628708 11.134766 2.1894531 C 10.801432 2.3160354 10.496344 2.5098752 10.220703 2.7695312 L 10.441406 3.1582031 C 10.476662 3.2198717 10.524338 3.2748732 10.582031 3.3203125 C 10.642929 3.3625065 10.715495 3.3828125 10.798828 3.3828125 C 10.894982 3.3828125 10.981671 3.3625065 11.058594 3.3203125 C 11.135517 3.2781182 11.21885 3.2322791 11.308594 3.1835938 C 11.398338 3.1316625 11.49985 3.0832096 11.615234 3.0410156 C 11.733824 2.9988216 11.883013 2.9785156 12.0625 2.9785156 C 12.302885 2.9785156 12.487029 3.0512092 12.615234 3.1972656 C 12.74344 3.343322 12.808594 3.5731784 12.808594 3.8847656 L 12.808594 4.1425781 C 12.270132 4.1555609 11.819211 4.2112228 11.457031 4.3085938 C 11.098057 4.4027191 10.809746 4.5219123 10.591797 4.6679688 C 10.377054 4.8107795 10.22451 4.9718772 10.134766 5.1503906 C 10.045022 5.3289041 10 5.5070333 10 5.6855469 C 10 5.8997629 10.034254 6.0903286 10.101562 6.2558594 C 10.16887 6.4181444 10.262971 6.5537086 10.384766 6.6640625 C 10.509766 6.7744165 10.6563 6.8595461 10.826172 6.9179688 C 10.996044 6.9731454 11.183544 7 11.388672 7 C 11.555339 7 11.707182 6.9862426 11.841797 6.9570312 C 11.979618 6.9310654 12.107973 6.889161 12.226562 6.8339844 C 12.348357 6.7788075 12.463993 6.7120018 12.576172 6.6308594 C 12.688352 6.5497168 12.80594 6.4547643 12.927734 6.3476562 L 13.033203 6.6679688 C 13.068457 6.7718313 13.116834 6.8432036 13.177734 6.8789062 C 13.238632 6.9113629 13.326022 6.9277344 13.441406 6.9277344 L 14 6.9277344 L 14 3.8847656 C 14 3.6088812 13.959034 3.3554447 13.878906 3.125 C 13.798778 2.8945553 13.683144 2.6967806 13.529297 2.53125 C 13.375451 2.3624735 13.187951 2.2315046 12.966797 2.140625 C 12.745644 2.0464997 12.495644 2 12.216797 2 z M 12.808594 4.8925781 L 12.808594 5.6699219 C 12.651542 5.8354525 12.492288 5.9598732 12.332031 6.0410156 C 12.17498 6.1189124 11.98748 6.1582031 11.769531 6.1582031 C 11.583634 6.1582029 11.435146 6.1162987 11.326172 6.0351562 C 11.220403 5.9540138 11.167969 5.8177889 11.167969 5.6230469 C 11.167969 5.5256759 11.194814 5.4339976 11.246094 5.3496094 C 11.300581 5.2652209 11.388672 5.1925274 11.513672 5.1308594 C 11.638672 5.065945 11.805339 5.0135574 12.013672 4.9746094 C 12.225211 4.9324154 12.491286 4.9055608 12.808594 4.8925781 z M 10 8 L 10 14.927734 L 10.925781 14.927734 C 11.013499 14.927734 11.085798 14.911046 11.140625 14.878906 C 11.195451 14.843553 11.231727 14.78209 11.25 14.695312 L 11.310547 14.388672 C 11.398266 14.481877 11.486751 14.565443 11.578125 14.642578 C 11.673154 14.716502 11.777321 14.781304 11.890625 14.835938 C 12.00393 14.88736 12.126234 14.928105 12.257812 14.957031 C 12.393046 14.985958 12.544762 15 12.712891 15 C 13.056458 15 13.368706 14.938537 13.646484 14.816406 C 13.927917 14.691062 14.168117 14.515992 14.369141 14.291016 C 14.570164 14.062824 14.726288 13.790838 14.835938 13.472656 C 14.945586 13.154475 15 12.800999 15 12.412109 C 15 12.052147 14.952451 11.726756 14.857422 11.4375 C 14.762393 11.148243 14.62661 10.901698 14.451172 10.699219 C 14.275733 10.493525 14.064944 10.335837 13.816406 10.226562 C 13.567868 10.117288 13.287235 10.0625 12.976562 10.0625 C 12.65127 10.0625 12.359112 10.123272 12.099609 10.242188 C 11.840106 10.35789 11.604566 10.512241 11.392578 10.705078 L 11.392578 8 L 10 8 z M 12.494141 11.017578 C 12.665924 11.017578 12.817639 11.044969 12.949219 11.099609 C 13.084452 11.154246 13.195484 11.239765 13.283203 11.355469 C 13.374579 11.471171 13.444674 11.621492 13.492188 11.804688 C 13.539701 11.984669 13.564453 12.201868 13.564453 12.458984 C 13.564453 12.74824 13.535042 12.995479 13.476562 13.201172 C 13.421739 13.403651 13.34037 13.571353 13.234375 13.703125 C 13.132036 13.831682 13.005322 13.927215 12.855469 13.988281 C 12.705615 14.046135 12.540171 14.074219 12.357422 14.074219 C 12.174673 14.074219 12.002616 14.043489 11.841797 13.982422 C 11.680978 13.921357 11.531467 13.815118 11.392578 13.664062 L 11.392578 11.552734 C 11.549742 11.379181 11.714935 11.248194 11.886719 11.158203 C 12.058502 11.064998 12.260222 11.017578 12.494141 11.017578 z "
     id="path14" />
</svg>
